X:704
T:Reel 704
M:4/4
K:Amaj
L:1/8
E,|A,CEA, CEAC|ECA,C B,A,F,G,|A,2CE A2EA|FDCD B,A,F,G,|A,2CE A2AE|FECE DB,B,D|CA,EA, AAGAEF|EA,B,D CA,A,|G|AA,A,E CEAE|FAEA FAEG|A2AE CA,A,C|DB,ED CA,A,z|AGAE CECE|AGBA FABG|AcBG AGFE|FAEC CA,A,|
